X:1
T:Blackberry Grove
M:6/8
L:1/8
K:F
 C| FFF FGA| FGFF-E C/2C/2| FFFF-A c| ddc A2 c| ddc A3| cB G/2G/2F-E C/2C/2|\
 FAc C2 C/2C/2| CDE F2||
